X: 29
T:RIGODON DU TABOURET
M:2/4
L:1/16
Q:190
C:M.P.
R:rigodon
K:C
G2|c2B2 c2d2|c2B2 c2d2|e2de f2d2|1 e4c2:|2 c6|!
|:g2|g4e2g2|f4d2f2|1 e2d2 c2d2|edef g2:|2 e2d2 c2B2|c6||
